assets/images/icons/src/stethoscope.svg

<?xml version="1.0" encoding="utf-8"?>
<!-- Generated by IcoMoon.io -->
<!DOCTYPE svg PUBLIC "-//W3C//DTD SVG 1.1//EN" "http://www.w3.org/Graphics/SVG/1.1/DTD/svg11.dtd">
<svg version="1.1" xmlns="http://www.w3.org/2000/svg" xmlns:xlink="http://www.w3.org/1999/xlink" width="11" height="14" viewBox="0 0 11 14">
<path fill="#444444" d="M10 5.5q0-0.203-0.148-0.352t-0.352-0.148-0.352 0.148-0.148 0.352 0.148 0.352 0.352 0.148 0.352-0.148 0.148-0.352zM11 5.5q0 0.484-0.277 0.867t-0.723 0.547v3.086q0 1.242-1.027 2.121t-2.473 0.879-2.473-0.879-1.027-2.121v-1.031q-1.281-0.156-2.141-1t-0.859-1.969v-4q0-0.203 0.148-0.352t0.352-0.148q0.047 0 0.125 0.016 0.133-0.234 0.367-0.375t0.508-0.141q0.414 0 0.707 0.293t0.293 0.707-0.293 0.707-0.707 0.293q-0.258 0-0.5-0.141v3.141q0 0.828 0.734 1.414t1.766 0.586 1.766-0.586 0.734-1.414v-3.141q-0.242 0.141-0.5 0.141-0.414 0-0.707-0.293t-0.293-0.707 0.293-0.707 0.707-0.293q0.273 0 0.508 0.141t0.367 0.375q0.078-0.016 0.125-0.016 0.203 0 0.352 0.148t0.148 0.352v4q0 1.125-0.859 1.969t-2.141 1v1.031q0 0.828 0.734 1.414t1.766 0.586 1.766-0.586 0.734-1.414v-3.086q-0.445-0.164-0.723-0.547t-0.277-0.867q0-0.625 0.438-1.062t1.062-0.438 1.062 0.438 0.438 1.062z"></path>
</svg>

<svg xmlns="http://www.w3.org/2000/svg" width="11" height="14" viewBox="0 0 11 14"><path fill="#444" d="M10 5.5q0-.203-.148-.352T9.5 5t-.352.148T9 5.5t.148.352T9.5 6t.352-.148T10 5.5zm1 0q0 .484-.277.867T10 6.914V10q0 1.242-1.027 2.121T6.5 13t-2.473-.879T3 10V8.969q-1.281-.156-2.141-1T0 6V2q0-.203.148-.352T.5 1.5q.047 0 .125.016.133-.234.367-.375T1.5 1q.414 0 .707.293T2.5 2t-.293.707T1.5 3q-.258 0-.5-.141V6q0 .828.734 1.414T3.5 8t1.766-.586T6 6V2.859Q5.758 3 5.5 3q-.414 0-.707-.293T4.5 2t.293-.707T5.5 1q.273 0 .508.141t.367.375Q6.453 1.5 6.5 1.5q.203 0 .352.148T7 2v4q0 1.125-.859 1.969T4 8.969V10q0 .828.734 1.414T6.5 12t1.766-.586T9 10V6.914q-.445-.164-.723-.547T8 5.5q0-.625.438-1.062T9.5 4t1.062.438T11 5.5z"/></svg>
